X:1
T:Stan Chapman's Jig
M:6/8
L:1/8
K:A
F |: "A"E3 EFA | "E7"B3 Bce | "A"fea "D"fec | "A"ecA "E"BAF |
"A"E3 EFA | "E7"B3 Bce | "A"fea "D"fec |1 "E7"ecA "A"A2F :|2 "E7"ecA "A"A2f ||
 |: "A"e3 ecA | "D"f3 fga | "A"fec BAB | "F#m"cAF F2f |
 |1 "A"e3 ecA | "D"f3 fga | "A"fec "E7"BAB | "A"cAA A2f :|
 |2 "A"ecA ecA | "D"fdf fga | "A"fec "E7"BAB | "A"cAA A2 |]
